!!!COM: Palestrina, Giovanni Perluigi da
!!!OPR: Missa Confitebor tibi
!!!OMD: Gloria
!!!OTL: First Section
**kern	**kern	**kern	**kern	**kern	**kern	**kern	**kern
*Ibass	*Itenor	*Icalto	*Icant	*Ibass	*Itenor	*Icalto	*Icant
!Bassus	!Tenor	!Altus	!Cantus	!Bassus	!Tenor	!Altus	!Cantus
*clefF4	*clefGv2	*clefG2	*clefG2	*clefF4	*clefGv2	*clefG2	*clefG2
*k[b-]	*k[b-]	*k[b-]	*k[b-]	*k[b-]	*k[b-]	*k[b-]	*k[b-]
*G:dor	*G:dor	*G:dor	*G:dor	*G:dor	*G:dor	*G:dor	*G:dor
*M4/2	*M4/2	*M4/2	*M4/2	*M4/2	*M4/2	*M4/2	*M4/2
=1	=1	=1	=1	=1	=1	=1	=1
0r	0r	0r	0r	1r	1r	0r	1.g
.	.	.	.	[1G	[1d	.	.
.	.	.	.	.	.	.	2g
=2	=2	=2	=2	=2	=2	=2	=2
0r	0r	0r	0r	2G]	2d]	1.g	1b-
.	.	.	.	2G	2d	.	.
.	.	.	.	1c	1e	.	1cc
.	.	.	.	.	.	2g	.
=3	=3	=3	=3	=3	=3	=3	=3
0r	0r	0r	0r	1B-	1f	1b-	2.dd
.	.	.	.	.	.	.	4cc
.	.	.	.	4G	1g	1b-	4b-
.	.	.	.	4A	.	.	4cc
.	.	.	.	4B-	.	.	4dd
.	.	.	.	4c	.	.	4ee
=4	=4	=4	=4	=4	=4	=4	=4
0r	0r	0r	0r	1.d	2f	2a	1.ff
.	.	.	.	.	4d	4f	.
.	.	.	.	.	4e	4g	.
.	.	.	.	.	4f	4a	.
.	.	.	.	.	4g	4b-	.
.	.	.	.	2A	[2a	2cc	2ee
=5	=5	=5	=5	=5	=5	=5	=5
0r	0r	0r	0r	2B-	4a]	2.b-	1dd
.	.	.	.	.	4g	.	.
.	.	.	.	2G	1g	.	.
.	.	.	.	.	.	8a	.
.	.	.	.	.	.	8g	.
.	.	.	.	1d	.	2a	1dd
.	.	.	.	.	2f#	2a	.
=6	=6	=6	=6	=6	=6	=6	=6
1.G	1r	1.b-	0r	2.G	2g	2.g	[0dd
.	.	.	.	.	2.G	.	.
.	.	.	.	4A	.	8f	.
.	.	.	.	.	.	8e	.
.	[1d	.	.	4B-	.	2.d	.
.	.	.	.	4c	4A	.	.
2G	.	2b-	.	2d	4B-	.	.
.	.	.	.	.	4c	4e	.
=7	=7	=7	=7	=7	=7	=7	=7
2F	2d]	2a	1r	1D	1d	1f	1dd]
2D	2d	2f	.	.	.	.	.
[1E-	2c	1g	[1gg	1r	1r	1r	1r
.	2B-	.	.	.	.	.	.
=8	=8	=8	=8	=8	=8	=8	=8
1E-]	1c	2.g	2gg]	1r	1r	0r	1r
.	.	.	2gg	.	.	.	.
.	.	4a	.	.	.	.	.
[1D	1d	2b-	2ff	2r	2r	.	2r
.	.	4a	2dd	[2d	[2f	.	[2dd
.	.	4g	.	.	.	.	.
=9	=9	=9	=9	=9	=9	=9	=9
1D]	0A	4f	1ff	2d]	2f]	1.a	2dd]
.	.	4e	.	.	.	.	.
.	.	4f	.	2d	2d	.	2a
.	.	4g	.	.	.	.	.
1A	.	1a	1ee	2c	2e	.	2cc
.	.	.	.	2A	2e	2a	2cc
=10	=10	=10	=10	=10	=10	=10	=10
0r	0r	0r	0r	0B-	0d	2g	0dd
.	.	.	.	.	.	2f	.
.	.	.	.	.	.	1g	.
=11	=11	=11	=11	=11	=11	=11	=11
1r	1r	1r	1r	1A	1e	1a	1cc#
1G	1d	1b-	1gg	1r	1r	1r	1r
=12	=12	=12	=12	=12	=12	=12	=12
1D	1d	1a	1ff#	0r	0r	0r	0r
1G	1d	1b	1gg	.	.	.	.
=13	=13	=13	=13	=13	=13	=13	=13
0C	0g	0cc	0ee	2r	2r	2r	2r
.	.	.	.	1c	1e	1g	1cc
.	.	.	.	2c	2e	2g	2cc
=14	=14	=14	=14	=14	=14	=14	=14
0r	0r	0r	0r	2.G	2.d	2.g	2.b
.	.	.	.	4G	4d	4g	4b
.	.	.	.	1c	1e	1g	1cc
=15	=15	=15	=15	=15	=15	=15	=15
2r	2r	2r	2r	0F	0f	0cc	0a
1F	1c	1a	1ff	.	.	.	.
2F	2c	2a	2ff	.	.	.	.
=16	=16	=16	=16	=16	=16	=16	=16
1C	1c	1g	1ee	0r	0r	0r	0r
1F	1c	1a	1ff	.	.	.	.
=17	=17	=17	=17	=17	=17	=17	=17
0BB-	0f	0b-	0dd	2r	2r	2r	2r
.	.	.	.	2B-	2d	2f	2b-
.	.	.	.	2B-	2d	2f	2b-
.	.	.	.	2B-	2d	2b-	[2dd
=18	=18	=18	=18	=18	=18	=18	=18
0r	0r	0r	0r	2F	4f	2a	2dd]
.	.	.	.	.	4e	.	.
.	.	.	.	2A	4d	2f	1cc
.	.	.	.	.	4c	.	.
.	.	.	.	1G	2d	[1g	.
.	.	.	.	.	2d	.	2b
=19	=19	=19	=19	=19	=19	=19	=19
1.C	2r	2r	2r	2r	2c	1g]	2cc
.	1e	1cc	1gg	1c	1g	.	1ee
.	.	.	.	.	.	2r	.
2C	2e	2cc	2gg	2c	2g	[2cc	2ee
=20	=20	=20	=20	=20	=20	=20	=20
1C	1g	1cc	4gg	2.c	1e	2cc]	1ee
.	.	.	4ff	.	.	.	.
.	.	.	4ee	.	.	2cc	.
.	.	.	4dd	4B-	.	.	.
[1F	2r	2r	2cc	4A	1a	1cc	[1ff
.	.	.	.	4G	.	.	.
.	[2f	[2a	[2cc	2F	.	.	.
=21	=21	=21	=21	=21	=21	=21	=21
2F]	2f]	2a]	2cc]	2r	2f	1.a	2ff]
2F	2f	2a	2cc	1F	1c	.	2ff
1F	1c	1f	1cc	.	.	.	1ff
.	.	.	.	2F	[2f	2a	.
=22	=22	=22	=22	=22	=22	=22	=22
0D	1.f	0a	2.dd	2F	4f]	2a	2.ff
.	.	.	.	.	4g	.	.
.	.	.	.	2D	1a	2.f	.
.	.	.	4ee	.	.	.	4ee
.	.	.	1ff	4D	.	.	1dd
.	.	.	.	4E	.	4g	.
.	2d	.	.	4F	[2A	[2a	.
.	.	.	.	4G	.	.	.
=23	=23	=23	=23	=23	=23	=23	=23
1AA	2r	1a	1ee	2A	4A]	2a]	1cc#
.	.	.	.	.	4B	.	.
.	2e	.	.	1A	4c#	2e	.
.	.	.	.	.	4d	.	.
1r	2e	1A	1cc#	.	2e	2.a	2r
.	[2a	.	.	2A	2e	.	[2a
.	.	.	.	.	.	4g	.
=24	=24	=24	=24	=24	=24	=24	=24
1.D	4a]	2A	1dd	1d	1f	4f	2a]
.	4g	.	.	.	.	4e	.
.	4f	2.a	.	.	.	1d	2a
.	4e	.	.	.	.	.	.
.	2.d	.	1ff	1d	1a	.	1dd
.	.	4g	.	.	.	.	.
2D	.	4f	.	.	.	2a	.
.	4c	4e	.	.	.	.	.
=25	=25	=25	=25	=25	=25	=25	=25
1G	1B-	1d	0gg	2r	2g	1b-	2dd
.	.	.	.	1B-	2.G	.	1dd
1G	2G	[1B-	.	.	.	2b-	.
.	.	.	.	.	4A	.	.
.	[2d	.	.	2G	[2B-	[2b-	2dd
=26	=26	=26	=26	=26	=26	=26	=26
2r	2d]	1B-]	2r	0G	4B-]	2b-]	0b-
.	.	.	.	.	4c	.	.
1B-	2d	.	1dd	.	1d	2g	.
.	[1B-	2r	.	.	.	[1g	.
2G	.	[2b-	2dd	.	2d	.	.
=27	=27	=27	=27	=27	=27	=27	=27
1G	1B-]	2b-]	2b-	2.B-	0d	2g]	2.dd
.	.	2g	2.dd	.	.	2.b-	.
.	.	.	.	4A	.	.	4cc
2.B-	2.d	2g	.	2.G	.	.	2.b-
.	.	.	4cc	.	.	4a	.
.	.	[2b-	[2b-	.	.	[2g	.
4A	4c	.	.	4A	.	.	4cc
=28	=28	=28	=28	=28	=28	=28	=28
1G	1B-	4b-]	4b-]	2.B-	0d	4g]	0dd
.	.	4a	4cc	.	.	4a	.
.	.	1g	2.dd	.	.	2b-	.
.	.	.	.	4G	.	.	.
1D	1A	.	.	1d	.	2a	.
.	.	.	4cc	.	.	.	.
.	.	2f#	2a	.	.	2d	.
=29	=29	=29	=29	=29	=29	=29	=29
0G	0G	0g	0b	1G	1B	2r	1dd
.	.	.	.	.	.	2.d	.
.	.	.	.	2r	2r	.	2r
.	.	.	.	.	.	4d	.
.	.	.	.	[2G	[2d	2d	[2b
=30	=30	=30	=30	=30	=30	=30	=30
0r	0r	0r	0r	4G]	4d]	0g	4b]
.	.	.	.	4G	4d	.	4b
.	.	.	.	2G	2d	.	2b
.	.	.	.	1c	1e	.	1cc
=31	=31	=31	=31	=31	=31	=31	=31
0r	0r	0r	0r	1A	1e	2a	1.cc
.	.	.	.	.	.	2a	.
.	.	.	.	2r	[1f	2a	.
.	.	.	.	[2F	.	[2cc	[2a
=32	=32	=32	=32	=32	=32	=32	=32
0r	0r	0r	0r	2F]	2f]	4cc]	2a]
.	.	.	.	.	.	4b-	.
.	.	.	.	2F	2f	4a	2cc
.	.	.	.	.	.	4g	.
.	.	.	.	1B-	1d	2f	1dd
.	.	.	.	.	.	2g	.
=33	=33	=33	=33	=33	=33	=33	=33
2r	2r	2r	2r	1A	1e	1a	1cc#
1A	1e	1a	1cc#	.	.	.	.
.	.	.	.	1r	1r	1r	1r
2A	2e	2a	2cc#	.	.	.	.
=34	=34	=34	=34	=34	=34	=34	=34
1d	0f#	1a	1dd	2r	2r	1r	2r
.	.	.	.	1D	1d	.	2a
1d	.	1a	1dd	.	.	2r	2a
.	.	.	.	2D	2d	2d	[2dd
=35	=35	=35	=35	=35	=35	=35	=35
2r	1g	1b-	2r	1G	2.B-	2d	4dd]
.	.	.	.	.	.	.	4cc
2G	.	.	2dd	.	.	1g	1b-
.	.	.	.	.	4c	.	.
2G	1d	2g	1dd	1G	2d	.	.
2B-	.	2g	.	.	2B-	2d	2g
=36	=36	=36	=36	=36	=36	=36	=36
4A	2e	[0a	2cc	0r	0r	0r	0r
4G	.	.	.	.	.	.	.
4F	2A	.	2.ff	.	.	.	.
4E	.	.	.	.	.	.	.
1D	4d	.	.	.	.	.	.
.	4e	.	4ee	.	.	.	.
.	4f	.	[2dd	.	.	.	.
.	4d	.	.	.	.	.	.
=37	=37	=37	=37	=37	=37	=37	=37
1A	1e	1a]	2dd]	2r	2r	2r	2r
.	.	.	2cc#	2.A	2A	2.e	2.a
1r	1r	1r	1r	.	2c#	.	.
.	.	.	.	4A	.	4e	4a
.	.	.	.	2A	2c#	2e	2a
=38	=38	=38	=38	=38	=38	=38	=38
2r	2r	1r	2r	1D	1d	2.f#	1a
2.d	2d	.	2.a	.	.	.	.
.	.	.	.	.	.	4g	.
.	2f#	2r	.	1D	1A	2a	1dd
4d	.	.	4a	.	.	.	.
2d	2f#	[2d	2a	.	.	2d	.
=39	=39	=39	=39	=39	=39	=39	=39
1G	1g	4d]	1b	0r	0r	0r	0r
.	.	4d	.	.	.	.	.
.	.	2d	.	.	.	.	.
1G	1d	2g	1b	.	.	.	.
.	.	2g	.	.	.	.	.
=40	=40	=40	=40	=40	=40	=40	=40
1c	1e	2g	1cc	0r	0r	0r	0r
.	.	2a	.	.	.	.	.
1B-	1f	[1b-	1dd	.	.	.	.
=41	=41	=41	=41	=41	=41	=41	=41
1E-	2g	1b-]	1ee-	0r	0r	0r	0r
.	2g	.	.	.	.	.	.
1F	2.f	1a	2dd	.	.	.	.
.	.	.	[2cc	.	.	.	.
.	4e-	.	.	.	.	.	.
=42	=42	=42	=42	=42	=42	=42	=42
0G	0d	0g	2cc]	1r	0r	1r	1r
.	.	.	4b	.	.	.	.
.	.	.	4a	.	.	.	.
.	.	.	[1b	[1G	.	[1g	[1dd
=43	=43	=43	=43	=43	=43	=43	=43
1r	0G	1r	1b]	1G]	1.g	2g]	1dd]
.	.	.	.	.	.	2f	.
[1C	.	[1g	2.cc	[1c	.	2e	2.ee
.	.	.	.	.	2f	2d	.
.	.	.	4dd	.	.	.	4ff
=44	=44	=44	=44	=44	=44	=44	=44
1C]	1.c	1g]	1ee	2c]	2e	0c	2gg
.	.	.	.	2B-	2d	.	2g
[1F	.	2.f	1ff	2A	[1c	.	2a
.	2B-	.	.	2G	.	.	2b-
.	.	4g	.	.	.	.	.
=45	=45	=45	=45	=45	=45	=45	=45
2F]	2A	0a	1.ff	0F	1c]	[0f	1cc
2E	2G	.	.	.	.	.	.
2D	[1F	.	.	.	[1d	.	[1ff
2C	.	.	2ee	.	.	.	.
=46	=46	=46	=46	=46	=46	=46	=46
0BB-	1F]	1b-	2.dd	0B-	2d]	0f]	2ff]
.	.	.	.	.	2c	.	2ee
.	.	.	4ee	.	.	.	.
.	1B-	2.f	1ff	.	1B-	.	1dd
.	.	4g	.	.	.	.	.
=47	=47	=47	=47	=47	=47	=47	=47
0F	0c	0a	0ff	1F	1A	0f	2cc
.	.	.	.	.	.	.	2.a
.	.	.	.	2r	2r	.	.
.	.	.	.	.	.	.	4a
.	.	.	.	[2A	[2c	.	2a
=48	=48	=48	=48	=48	=48	=48	=48
0r	0r	0r	0r	4A]	4c]	2r	1cc
.	.	.	.	4A	4c	.	.
.	.	.	.	2A	1c	2.e	.
.	.	.	.	1c	.	.	2.g
.	.	.	.	.	.	4e	.
.	.	.	.	.	[2g	2e	.
.	.	.	.	.	.	.	4a
=49	=49	=49	=49	=49	=49	=49	=49
0r	0r	0r	0r	2.G	2g]	1g	4b-
.	.	.	.	.	.	.	4a
.	.	.	.	.	2.d	.	4b-
.	.	.	.	4A	.	.	4cc
.	.	.	.	4B-	.	2.d	[1dd
.	.	.	.	4c	4e	.	.
.	.	.	.	2d	4f	.	.
.	.	.	.	.	4g	4e	.
=50	=50	=50	=50	=50	=50	=50	=50
0r	0r	0r	0r	2.D	4a	4f	2dd]
.	.	.	.	.	4g	4g	.
.	.	.	.	.	4f	1a	1ff
.	.	.	.	4E	4e	.	.
.	.	.	.	4F	2d	.	.
.	.	.	.	4G	.	.	.
.	.	.	.	4A	4c	[2cc	4ee
.	.	.	.	4B-	4B-	.	4dd
=51	=51	=51	=51	=51	=51	=51	=51
0r	0r	0r	0r	2c	2A	2cc]	2ee
.	.	.	.	2d	2a	4b-	2ff
.	.	.	.	.	.	4a	.
.	.	.	.	1G	4g	2b-	2dd
.	.	.	.	.	4f	.	.
.	.	.	.	.	4e	2b-	[2ee
.	.	.	.	.	4d	.	.
=52	=52	=52	=52	=52	=52	=52	=52
0r	0r	1r	2r	0A	2c	0a	2ee]
.	.	.	2.a	.	2f	.	1dd
.	.	2r	.	.	1e	.	.
.	.	.	4a	.	.	.	.
.	.	[2a	2a	.	.	.	2cc#
=53	=53	=53	=53	=53	=53	=53	=53
2r	2.d	4a]	1f	0D	0d	0a	0dd
.	.	4a	.	.	.	.	.
2.D	.	2a	.	.	.	.	.
.	4d	.	.	.	.	.	.
.	2d	1f	2d	.	.	.	.
4D	.	.	.	.	.	.	.
2D	[2f	.	[2a	.	.	.	.
=54	=54	=54	=54	=54	=54	=54	=54
1F	2f]	2.c	4a]	0r	0r	0r	0r
.	.	.	4a	.	.	.	.
.	2.c	.	2a	.	.	.	.
.	.	4d	.	.	.	.	.
2.C	.	4e	1cc	.	.	.	.
.	4d	4f	.	.	.	.	.
.	4e	[2g	.	.	.	.	.
4D	4f	.	.	.	.	.	.
=55	=55	=55	=55	=55	=55	=55	=55
4E	2g	4g]	2.g	0r	0r	0r	2r
4F	.	4a	.	.	.	.	.
1G	2.d	1b-	.	.	.	.	2.dd
.	.	.	4a	.	.	.	.
.	.	.	4b-	.	.	.	.
.	4e	.	4cc	.	.	.	4dd
4F	[2f	4a	[2dd	.	.	.	2dd
4E	.	4g	.	.	.	.	.
=56	=56	=56	=56	=56	=56	=56	=56
1D	2f]	1f	2dd]	2r	2r	2.a	1.ff
.	4e	.	4cc	2.F	2.a	.	.
.	4d	.	4b-	.	.	4a	.
2r	1c	2r	1a	.	.	2a	.
.	.	.	.	4F	4a	.	.
[2A	.	[2a	.	2A	2a	[2cc	4ee
.	.	.	.	.	.	.	4dd
=57	=57	=57	=57	=57	=57	=57	=57
4A]	2.e	4a]	2r	1c	4A	2cc]	1cc
4A	.	4a	.	.	4B-	.	.
2A	.	2a	2.ee	.	4c	1c	.
.	4e	.	.	.	4d	.	.
1c	2e	1g	.	1C	2.e	.	1cc
.	.	.	4ee	.	.	.	.
.	[2g	.	2ee	.	.	[2g	.
.	.	.	.	.	4d	.	.
=58	=58	=58	=58	=58	=58	=58	=58
1C	2g]	1e	2.gg	2r	4e	4g]	2r
.	.	.	.	.	4f	4g	.
.	4G	.	.	2c	2g	2c	2.g
.	4A	.	8ff	.	.	.	.
.	.	.	8ee	.	.	.	.
1G	4B-	2.g	[1dd	2B-	2G	2.d	.
.	4c	.	.	.	.	.	4g
.	2d	.	.	2G	[2d	.	2b-
.	.	4g	.	.	.	4e	.
=59	=59	=59	=59	=59	=59	=59	=59
2F	[0A	1a	1dd]	1d	4d]	4f	2a
.	.	.	.	.	4d	4g	.
2D	.	.	.	.	2f	2.a	2dd
1A	.	1a	1ee	1A	1e	.	4cc#
.	.	.	.	.	.	4g	4b
.	.	.	.	.	.	2a	2cc#
=60	=60	=60	=60	=60	=60	=60	=60
[0D	1A]	[0a	[0ff#	1d	1.d	[0f#	[0dd
.	1d	.	.	1D	.	.	.
.	.	.	.	.	4c	.	.
.	.	.	.	.	4B-	.	.
=61	=61	=61	=61	=61	=61	=61	=61
0D]	0d	0a]	0ff#]	0D	0A	0f#]	0dd]
*-	*-	*-	*-	*-	*-	*-	*-
!!!CDT: 1525/^1526/-1594/2/2
!!!OCY: Italia
!!!AGN: Mass (Parody)
!!!AST: renaissance, vocal
!!!ASW: Motet 1572 (Palestrina)
!!!PWK: Masses, Book 8vce
!!!RNB: Cadence finals: D,Bb
!!!YOR: Le Opere Complete, v. 30, p. 163
!!!YOO: Rome, Italy: Fratelli Scalera
!!!END: 1992//
!!!EED: John Miller
!!!YEC: Copyright 2000, John Miller
!!!YEN: United States of America
!!!YEM: Rights to all derivative electronic formats reserved.
!!!YEM: Refer to licensing agreement for further details.
!!!YEM: This file must be accompanied by the licensing agreement.
!!!YEM: A copy of the licensing agreement may be found at http://www.music-cog.ohio-state.edu/HumdrumDatabases/Palestrina/license.txt
!!!EMD: converted to Humdrum by Bret Aarden
